icons/glyphs/glyph-ruler-high.svg

<?xml version="1.0" encoding="UTF-8" standalone="no"?><svg height="16" viewBox="0 0 4.2333332 4.2333332" width="16" xmlns="http://www.w3.org/2000/svg"><sodipodi:namedview/><metadata><rdf:RDF><cc:Work><dc:format>image/svg+xml</dc:format><dc:type/><dc:title/></cc:Work></rdf:RDF></metadata><path d="m0 1.0582826v2.116768h4.2333332v-2.116768h-.3328836v1.058789h-.2630268v-1.058789h-.5746497v.5392149h-.2630266v-.5392149h-.5746497v1.058789h-.2630267v-1.058789h-.5744472v.5392149h-.2630267v-.5392149h-.57464959v1.058789h-.2630268v-1.058789z" fill="#d0d0d0" stroke-linecap="round" stroke-miterlimit="26.700001" stroke-width=".396875"/></svg>

<?xml version="1.0" encoding="UTF-8" standalone="no"?>
<!-- Created with Inkscape (http://www.inkscape.org/) -->

<svg
   xmlns:dc="http://purl.org/dc/elements/1.1/"
   xmlns:cc="http://creativecommons.org/ns#"
   xmlns:rdf="http://www.w3.org/1999/02/22-rdf-syntax-ns#"
   xmlns:svg="http://www.w3.org/2000/svg"
   xmlns="http://www.w3.org/2000/svg"
   xmlns:sodipodi="http://sodipodi.sourceforge.net/DTD/sodipodi-0.dtd"
   xmlns:inkscape="http://www.inkscape.org/namespaces/inkscape"
   width="16"
   height="16"
   viewBox="0 0 4.2333332 4.2333332"
   version="1.1"
   id="svg8"
   inkscape:version="0.92+devel (b8837397f6, 2017-07-27, custom)"
   sodipodi:docname="glyph-ruler-high.svg">
  <defs
     id="defs2" />
  <sodipodi:namedview
     id="base"
     pagecolor="#002466"
     bordercolor="#ffffff"
     borderopacity="0.38039216"
     inkscape:pageopacity="1"
     inkscape:pageshadow="2"
     inkscape:zoom="36.415999"
     inkscape:cx="10.094581"
     inkscape:cy="7.9162778"
     inkscape:document-units="px"
     inkscape:current-layer="svg8"
     inkscape:document-rotation="0"
     showgrid="false"
     inkscape:showpageshadow="false"
     borderlayer="true"
     inkscape:window-width="1920"
     inkscape:window-height="1051"
     inkscape:window-x="0"
     inkscape:window-y="0"
     inkscape:window-maximized="1"
     units="px" />
  <metadata
     id="metadata5">
    <rdf:RDF>
      <cc:Work
         rdf:about="">
        <dc:format>image/svg+xml</dc:format>
        <dc:type
           rdf:resource="http://purl.org/dc/dcmitype/StillImage" />
        <dc:title></dc:title>
      </cc:Work>
    </rdf:RDF>
  </metadata>
  <path
     inkscape:connector-curvature="0"
     style="font-variation-settings:normal;vector-effect:none;fill:#d0d0d0;stroke-width:0.39687502;stroke-linecap:round;stroke-miterlimit:26.70000076"
     d="m 0,1.0582826 v 2.116768 H 4.2333332 V 1.0582826 H 3.9004496 v 1.058789 H 3.6374228 V 1.0582826 H 3.0627731 V 1.5974975 H 2.7997465 V 1.0582826 H 2.2250968 v 1.058789 H 1.9620701 V 1.0582826 H 1.3876229 V 1.5974975 H 1.1245962 V 1.0582826 H 0.54994661 v 1.058789 h -0.2630268 v -1.058789 z"
     id="rect849"
     inkscape:label="#" />
</svg>
